X: 1884
T: Arniston House
R: jig
M: 6/8
K: Aminor
A, A2 A2 E|G2 E DB,G,|A, A2 A2 E|ABc cBA|
A, A2 A2 E|G2 E DB,G,|C3 DCD|ECA, A,3:|
e2 A A3/2B/c|BAG dBG|ede AB/c/d/ z/|efd ecA|
ede ABc|BAG dcB|c3/2d/e dcB|ecA A2 f|
e2 A A3/2B/c|BAG dBG|ede AB/c/d/ z/|efd ecA|
eae cec|dgd Bcd|C3/2D/E B,3/2C/D|ECA, A,2 z|

